X: 37273
T: Skidoo
R: reel
M: 4/4
K: Eminor
EB, (3B,B,B, G2 AB|G~E3 BEAG|FdAF D2 B,A,|B,FED EB,FB,|
G~E3 BEAB|GBef gfed|dAde f2 fa|fedB AdBA|
G~E3 BEAB|GBAB GBAG|FdAF D2 B,A,|B,FED EB,FB,|
G~E3 BEAB|GBef gfed|dAde ~f3a|fedB Adef|
|:ge (3eee geBe|geBe cedc|BEGA BEGA|BEGA (3B^cd ef|
e2 ed ebba|gefe eAAB|cAEA BGEG|1 ADFD B,Eef:|2 ADFD B,EGF||

